client/public/assets/send.svg

<svg xmlns="http://www.w3.org/2000/svg" height="24px" viewBox="0 0 24 24" width="24px" fill="#000000"><path d="M0 0h24v24H0V0z" fill="none"/><path d="M4.01 6.03l7.51 3.22-7.52-1 .01-2.22m7.5 8.72L4 17.97v-2.22l7.51-1M2.01 3L2 10l15 2-15 2 .01 7L23 12 2.01 3z"/></svg>

<?xml version="1.0" encoding="UTF-8"?>
<svg width="21px" height="18px" viewBox="0 0 21 18" version="1.1" xmlns="http://www.w3.org/2000/svg" xmlns:xlink="http://www.w3.org/1999/xlink">
    <!-- Generator: Sketch 52.5 (67469) - http://www.bohemiancoding.com/sketch -->
    <title>send</title>
    <desc>Created with Sketch.</desc>
    <g id="Icons" stroke="none" stroke-width="1" fill="none" fill-rule="evenodd">
        <g id="Outlined" transform="translate(-374.000000, -1529.000000)">
            <g id="Content" transform="translate(100.000000, 1428.000000)">
                <g id="Outlined-/-Content-/-send" transform="translate(272.000000, 98.000000)">
                    <g>
                        <polygon id="Path" points="0 0 24 0 24 24 0 24"></polygon>
                        <path d="M4.01,6.03 L11.52,9.25 L4,8.25 L4.01,6.03 Z M11.51,14.75 L4,17.97 L4,15.75 L11.51,14.75 Z M2.01,3 L2,10 L17,12 L2,14 L2.01,21 L23,12 L2.01,3 Z" id="🔹-Icon-Color" fill="#1D1D1D"></path>
                    </g>
                </g>
            </g>
        </g>
    </g>
</svg>
